!!!!SEGMENT: pl-wumfc--n8919--001-004_szymanowski-karol--dwanascie-piesni-op-17-xii-noc-milosna-pozostan-moj-ukochany.krn
!!!cenid: 19xx:84
!!!COM: Szymanowski, Karol
!!!COM-rismID: pe30106403
!!!CDT: 1882-1937
!!!CNT: Polish
!!!GTL: Dwanaście pieśni Op. 17
!!!OTL: XII. Noc miłośna/Pozostań, mój ukochany!
!!!OMV: 004
!!!PDT:
!!!AGN: Secular; Song
!!!YEC: Copyright 2022 Narodowy Instytut Fryderyka Chopina (https://polishscores.org)
!!!YEM: License CC-BY-4.0 (https://creativecommons.org/licenses/by/4.0)
!!!SMS-siglum: PL-Wumfc
!!!SMS-shelfmark: N8919
!!!SMS-variant:
!!!SMS-altvar:
!!!SMS-shelfwork: 001-004 G
!!!NIFC-rismSourceID: 1001170655
!!!NIFC-rismChildID: 1001170780
!!!NIFC-islandoraID: pl-wumfc:7736
!!!URL-pdf-islandora: https://repozytorium.nifc.pl/islandora/object/pl-wumfc%3A7736/datastream/PDF/view
!!!URL-scan: https://polish.musicsources.pl/pl/lokalizacje/galeria/druki-muzyczne/12686/7 @EN{Scan on Polish Music Sources Website} @PL{Skany w portalu Dziedzictwo Muzyki Polskiej w otwartym dostępie}
!!!IIIF:
!!!ONB-nifc: UWAGA: str. 7-9.
!!!AIN: 1 piano 1 vox
!!!key: D
**kern	**fing	**kern	**dynam	**kern	**text	**text	**dynam
*part2	*part2	*part2	*part2	*part1	*part1	*part1	*part1
*staff3	*	*staff2	*	*staff1	*staff1	*staff1	*
*I"Piano.	*	*I"Piano.	*	*I"Canto.	*	*	*
*I'[pf]	*	*I'[pf]	*	*I'[V]	*	*	*
*ICklav	*	*ICklav	*	*ICvox	*	*	*
*Ipiano	*	*Ipiano	*	*Ivox	*	*	*
*clefF4	*	*clefG2	*	*clefG2	*	*	*
*k[f#c#]	*	*k[f#c#]	*	*k[f#c#]	*	*	*
*D:	*	*D:	*	*D:	*	*	*
*M6/8	*	*M6/8	*	*M6/8	*	*	*
=1	=1	=1	=1	=1	=1	=1	=1
*^	*	*^	*	*	*	*	*
!	!	!	!LO:TX:b:i:t=(legato)	!	!	!LO:TX:B:a:t=Andante affetuoso.	!	!	!
8DDD/ 8DD	8ryy	.	8r	8ryy	.	8r	.	.	.
!	!	!	!	!LO:TX:b:t=cre_scen_do:dur=4e2s:ext=ud:problem:text with extention lines	!LO:HP:t=cre_scen_do	!	!	!	!
4F#/	(8D\L	.	(8d/L	4A\	ppp <	8r	.	.	.
.	8C#\J	.	8d#X/J	.	.	8d#X/	(Sie:) O	(Ona:) Po-	ppp <
4.Cn/ 4.F#	8C\L)	.	8.e/L	[4A#X\	.	(8.e/L	wei-	-zost-	.
.	(8DD\	.	.	.	.	.	.	.	.
.	.	.	16d#/K	.	.	16d#/J)	.	.	.
.	8DDD\J)	.	[8e/J)	16A#\LL]	.	8e/	-le,	-tań,	.
.	.	.	.	16An\JJ	.	.	.	.	.
=2	=2	=2	=2	=2	=2	=2	=2	=2	=2
*	*^	*	*	*	*	*	*	*	*
*	*	*	*	*	*	*	*	*	*	*^
16F#/LL	4Cn\	16ryy	.	(16e/LL]	4B-X\	.	16r	.	.	.	.
16Fn/	.	[<16cny^^/	.	16a/	.	.	[16cc#\	sü-	mój	.	<
!	!	!LO:TX:t=P:problem: voice leading line	!	!	!	!	!	!	!	!	!
16En/	.	8c/]	.	16g/	.	<	8cc#\]	.	.	.	.
16D/	.	.	.	16fn/	.	.	.	.	.	.	.
16F/ 16G#X	8BB\	2ryy	.	16.g#X/	8Bn\ 8d	.	16.dd\L	-ßer	u-	.	.
[<16DD/JJ	.	.	.	.	.	.	.	.	.	.	.
.	.	.	.	32e/JJk 32ee	.	[[	32ee\	Ge-	-ko-	[ >	.
!	!	!	!	!	!	!	!LO:TX:a:i:t=rit.	!	!	!	!
8DDD/L 8DD]	8ryy	.	.	(4e/ 4ee	4f\ 4gn	>	4ee\	-lieb-	-cha-	.	.
!LO:TX:a:i:t=rit.	!	!	!	!	!	!	!	!	!	!	!
(8BB/ 8FnX 8G#X	4ryy	.	.	.	.	.	.	.	.	.	.
8CnX/J) 8F#X 8A	.	.	.	[<8e-X/)) [8ee-X	8f#X\ [>8a	]]	8ee-X\	-ter!	-ny!	]	.
*	*	*	*	*	*	*	*	*	*	*v	*v
*v	*v	*v	*	*	*	*	*	*	*	*
*	*	*v	*v	*	*	*	*	*
!!LO:LB:g=original	!	!	!	!	!	!
=3	=3	=3	=3	=3	=3	=3	=3
*M9/8	*	*M9/8	*	*M9/8	*	*	*
*^	*	*^	*	*	*	*	*
!	!	!	!LO:TX:a:i:t=(poco avviv.)	!	!	!	!	!	!
16CCC#\LL 16CC#	8ryy	.	(8d#X/L] 8dd#X]	16a\LL]	.	8r	.	.	.
(<16A#X\	.	.	.	(<16a#X\	.	.	.	.	.
16G#X\	8C#/	.	8c#/ 8cc#	16g#X\	.	8r	.	.	.
[<16F#X\	.	.	.	[16f#X\	.	.	.	.	.
!	!	!	!LO:TX:b:i:t=m.s.	!	!	!	!	!	!
16F#\]	8ryy	.	16.A#X/L 16.a#	16f#</]	<	8a#X/	Es	To	p <
16E#X\JJ)	.	.	.	16e#X</JJ)	<	.	.	.	.
.	.	.	32a#/JJk 32aa#X	.	.	.	.	.	.
!LO:SIC:s=8A#X:t=# w nawiasie	!	!	!	!	!	!	!	!	!
8En/L 8A#X 8c# 8en	8ryy	.	4a#\ 4ff# 4aa#	4ryy	.	[4.ff#\	trügt	nie	.
(8EEE/ 8EE	8ryy	.	.	.	.	.	.	.	.
8DDD#X/J) 8DD#X	8ryy	.	[<8cc#\ [>8ff# [>8ccc#	8ryy	[	.	.	.	.
8f#/	4.D#X\ 4.A# 4.c#	.	8ff#/] 8ccc#]	4cc#\]	f >	8ff#\]	.	.	[ f >
!LO:TX:i:t=rall.	!	!	!	!	!	!LO:TX:a:i:t=rall.	!	!	!
!	!	!	!	!	!	!LO:SIC:s=4een\:t=n w nawiasie	!	!	!
[4f##X^^/	.	.	[4ff##X^^/	.	.	4een\	dich	jest	.
.	.	.	.	8ccn\ 8cccn	.	.	.	.	.
*v	*v	*	*	*	*	*	*	*	*
*	*	*v	*v	*	*	*	*	*
=4	=4	=4	=4	=4	=4	=4	=4
*M6/8	*	*M6/8	*	*M6/8	*	*	*
*^	*	*^	*	*	*	*	*
8gn/]	8Gn\ 8Bn 8dn	.	16bn\) 16ddn 16ggn] 16bbn	2.r	.	4ddn\	nur,	brzask,	] p >
.	.	.	(>16F#/LL (<16A#X	.	] pp <	.	.	.	.
(<8GGG/L 8GG	8ryy	.	16Dn/) 16dn	.	.	.	.	.	.
.	.	.	(<16Gn/ 16Bn	.	.	.	.	.	.
8FFF#/J 8FF#	2ryy	.	16D#X/) 16d#X	.	.	8r	.	.	.
.	.	.	(<16G#X/JJ 16B#X	.	.	.	.	.	.
8DDD#X\L) 8DD#X	.	.	16F#/LL 16f#	.	.	8r	.	.	.
.	.	.	16An/) 16c#	.	.	.	.	.	.
8D#X\ 8A 8c#	.	.	(<16f#/ 16ff#	.	[[	8r	.	.	.
.	.	.	16a/) 16cc#	.	.	.	.	.	.
8d#X\J [<8a [>8cc#	.	.	(<16ff#/ 16fff#	.	.	8ff#\	es	ta	pp
.	.	.	[<16aa/JJ) [>16ccc#	.	.	.	.	.	.
*v	*v	*	*	*	*	*	*	*	*
*	*	*v	*v	*	*	*	*	*
!!LO:LB:g=original	!	!	!	!	!	!
=5	=5	=5	=5	=5	=5	=5	=5
*	*	*	*	*^	*	*	*
16e\ 16a] 16cc#]	.	16ee/) 16aa] 16ccc#] 16eee	.	4cc#\	4ryy	hellt,	jaśń,	] >
16r	.	(>(16G#X/LL 16B#X	<	.	.	.	.	.
(8AAA/L 8AA	.	16E/) 16e	.	.	.	.	.	.
.	.	(16A/ 16c#	.	.	.	.	.	.
8GGG#X/J 8GG#X	.	16Fn/) 16fn	.	16r	4ryy	.	.	]
.	.	(16B-X/JJ 16d	.	16dd\	.	nur	to	p <
8FFFn/L) 8FFn	.	16A-X/LL 16a-X	.	4ee-X\	.	wol-	w mgły	.
.	.	16c-X/) 16e-X	.	.	.	.	.	.
*clefG2	*	*	*	*	*	*	*	*
8Fn/ 8c-X 8e-X	.	(16a-/ 16aa-X	.	.	8ryy	.	.	.
.	.	16cc-X/) 16ee-X	.	.	.	.	.	.
8fn/J [8cc-X [8ee-X	.	(16aa-/ 16aaa-X	[	16cc-X/	8cc-\	-ken	o-	.
.	.	[16ccc-X/JJ) [16eee-X	.	16cc-/	.	ge	.	[
*	*	*	*	*v	*v	*	*	*
=6	=6	=6	=6	=6	=6	=6	=6
*M3/8	*	*M3/8	*	*M3/8	*	*	*
16g-X/ 16cc-] 16ee-]	.	16gg-X/) 16ccc-] 16eee-] 16ggg-X	.	8bn\	trüb-	-wia-	>
16r	.	(>(16BnX/LL 16d#X	<	.	.	.	.
*clefF4	*	*	*	*	*	*	*
(8BBBnX/L 8BBnX	.	16F#X/JJ) 16f#X	.	8.f#X/	-ter,	-ny,	.
.	.	(16cn/LL 16en	.	.	.	.	.
8BBB-X/J 8BB-X	.	16G/ 16g	.	.	.	.	.
.	.	16c#X/JJ)) 16e#X	[	16gn/	der	księ-	]
=7	=7	=7	=7	=7	=7	=7	=7
*M6/8	*	*M6/8	*	*M6/8	*	*	*
*^	*	*^	*	*	*	*	*
*	*^	*	*	*^	*	*	*	*	*
8AAA/) 8AA	8ryy	4ryy	.	(8G#X/L 8g#X	16G#\LL	8ryy	p <	(8g#X/L	Mond	-ży-	p <
.	.	.	.	.	[16d\J [16f#	.	.	.	.	.	.
[<4F#/	8D\L	.	.	16a/L	8d\] 8f#]	4a\	.	8a/J)	.	.	.
.	.	.	.	N[<16A/	.	.	.	.	.	.	.
.	8C#\J	8A/N]	.	16d#X/	8d#\J	.	.	8dd#X\	die	-ca	[ <
.	.	.	.	16dd#X/JJ	.	.	.	.	.	.	.
4.F#/] 4.A#X	8Cn\L	8ryy	.	16ee/LL	[>4a#X\	8ryy	[ <	4a#X/	Flur.	blask	>
.	.	.	.	[16e/	.	.	.	.	.	.	.
.	(8DD\	4ryy	.	16e/]	.	[<8A#X\L	.	.	.	.	.
.	.	.	.	16d#/J	.	.	.	.	.	.	.
.	8DDD\J)	.	.	[8e/J)	8ryy	16A#\L] 16a#]	.	8r	.	.	]
.	.	.	.	.	.	16An\JJ 16an	.	.	.	.	.
*	*v	*v	*	*	*	*	*	*	*	*	*
*	*	*	*	*v	*v	*	*	*	*	*
!!LO:PB:g=original	!	!	!	!	!	!	!	!
=8	=8	=8	=8	=8	=8	=8	=8	=8	=8
16F#/LL	16Cn\LL	.	16e/LL]	(>16B-X\LL 16b-X	<	2.r	.	.	.
[16A/JJ [16c#	16Fn\	.	[16cc#/JJ	16a\ 16aa	.	.	.	.	.
16A/LL] 16c#]	16En\	.	16cc#/LL]	16g\ 16gg	.	.	.	.	.
16G#X/JJ 16B	16D\	.	[<16dd/JJ	16fn\ 16ffn	.	.	.	.	.
8F/ 8G#	16BB\	.	8dd/]	16.g#X\ 16.gg#X	.	.	.	.	.
.	16DDD\JJ 16DD	.	.	.	.	.	.	.	.
.	.	.	.	32ee\JJk 32eee	.	.	.	.	.
!	!	!	!LO:TX:b:i:t=rall.	!	!	!	!	!	!
8r	8CCC#/ 8CC#	.	4ee/ 4eee	[<4.ff\ [>4.gg#	.	.	.	.	.
8r	[4BB\ [4E#X [4G#	.	.	.	.	.	.	.	.
(>8en/	.	.	8ee-X/ 8eee-X	.	<	.	.	.	.
*v	*v	*	*	*	*	*	*	*	*
*	*	*v	*v	*	*	*	*	*
=9||	=9||	=9||	=9||	=9||	=9||	=9||	=9||
*M3/8	*	*M3/8	*	*M3/8	*	*	*
*^	*	*	*	*	*	*	*
*	*	*	*Xbrackettup	*	*	*	*	*
!	!	!	!	!	!LO:TX:a:B:t=Più mosso.	!	!	!
16e#X/)	16BB\] 16E#] 16G#]	.	24ddnX/) 24ff] 24gg#y] N(>24ddd	[ ff	16r	.	.	.
.	.	.	N(>(<24g#X/LL 24b	<	.	.	.	.
16ryy	16CCC#/ 16CC#	.	.	.	16bn\	(Er:) "Doch	(On:) "Mkną	f <
.	.	.	24gn/JJ)N)	.	.	.	.	.
!	!	!	!	!	!LO:TX:a:i:t=Con passione.	!	!	!
*	*Xbrackettup	*	*	*	*	*	*	*
4ryy	(<24DDD/LL 24DD	.	(24fn/LL 24a	.	8.ffn\	nim-	chu-	.
.	24GG#X/	.	24e/)	.	.	.	.	.
.	24AA/JJ	.	(24d/JJ 24f	.	.	.	.	.
.	16BB-X\) 16Gny	.	24c#/LL)	[	.	.	.	.
.	.	.	(24cn/ 24e	>	.	.	.	.
.	16r	.	.	.	16ff\	-mer	-ry.	[
.	.	.	24B/JJ)	]	.	.	.	.
*v	*v	*	*	*	*	*	*	*
=10	=10	=10	=10	=10	=10	=10	=10
*	*	*Xtuplet	*	*	*	*	*
8CCn^^</L 8Cn	.	(24B-X/LL	<	8een^^\	wei-	Na	>
.	.	24En/)	.	.	.	.	.
.	.	(24fn/JJ	.	.	.	.	.
8AAA-X^^</ 8AA-X	.	24Bn/LL	.	8.b\	-len	próż-	]
.	.	24Fn/)	.	.	.	.	.
.	.	(24f#X/JJ	.	.	.	.	.
8EEE-X^^</J 8EE-X	.	24cn/LL	.	.	.	.	.
.	.	24F#X/)	.	.	.	.	.
.	.	.	.	16ee-X\	und	-no	.
!	!	! 	!	!	!	!	!
.	.	N(24c#X/JJ 24g	[	.	.	.	.
=11	=11	=11	=11	=11	=11	=11	=11
*	*	*^	*	*	*	*	*
4CCCn/ 4CCn	.	24d/LL	8ryy	.	8dd^^\	hal-	chwi-	<
.	.	24G/)N)	.	.	.	.	.	.
.	.	24g/JJ	.	.	.	.	.	.
!	!	!LO:TX:b:i:t=poco rit.	!	!	!	!	!	!
.	.	24ryy	24B-X\LL	.	8g/	-ten	-lę	.
.	.	([12d/	24d\	.	.	.	.	.
.	.	.	[24D\JJ	.	.	.	.	.
(<8AAAn/L 8AAn	.	12D/L] 12d]	24c#\LL	.	(16dd\LL	die	chą	.
.	.	.	24F#X\	.	.	.	.	.
.	.	.	.	.	16dd#X\JJ)	.	.	.
.	.	24D#X/Jk) 24d#X	24D#\JJ	.	.	.	.	[[
*	*	*v	*v	*	*	*	*	*
=12	=12	=12	=12	=12	=12	=12	=12
*	*	*tuplet	*	*	*	*	*
!	!	!LO:TUP:a:problem:klamra łukowa	!	!	!	!	!
8GGG#X/J) 8GG#X	.	24F#X/N) 24f#X)	.	4ff#X\	Wol-	w miej-	ff
.	.	(>(24f#/LL 24dd#X 24ff#	ff >	.	.	.	.
.	.	24ddn/JJ)	.	.	.	.	.
*Xtuplet	*	*Xtuplet	*	*	*	*	*
(24AAA/LL 24AA	.	(24e/LL 24ccn 24ee	.	.	.	.	.
24D#X/	.	24b/)	.	.	.	.	.
24E/JJ	.	(24a/JJ 24cc	.	.	.	.	.
16Fn\) 16d	.	24g#X/LL)	.	8ffn\	-ken	-scu	>
.	.	(24gn/ 24b	.	.	.	.	.
16r	.	.	.	.	.	.	.
.	.	24f#/JJ)	.	.	.	.	.
=13	=13	=13	=13	=13	=13	=13	=13
8GG^^</L 8D 8G	.	(24fn/LL	.	4bn\	dort,	trwa	]]
.	.	24B/)	]	.	.	.	.
.	.	(24ccn/JJ	mf	.	.	.	.
8EE-X^^</ 8AA 8E-X	.	24f#X/LL	.	.	.	.	.
.	.	24cn/)	<	.	.	.	.
.	.	(24cc#X/JJ	.	.	.	.	.
8BBB-X^^</J 8EE- 8BB-X	.	24g/LL	.	16r	.	.	.
.	.	24c#X/)	.	.	.	.	.
.	.	.	.	16g/	es	pod-	mf <
.	.	(24dd/JJ	.	.	.	.	.
!!LO:LB:g=original	!	!	!	!	!	!
=14	=14	=14	=14	=14	=14	=14	=14
*	*	*^	*	*	*	*	*
*	*	*	*	*	*	*	*	*^
*	*	*	*	*^	*	*	*	*	*
!	!	!	!	!	!LO:HP:t=cresc. molto	!	!	!	!	!
16BBBn/ 16DD 16BBn	.	24a-X/LL	24ryy	.	<	8.a-X/	füh-	-da-	.	.
.	.	24d/)	24ryy	.	.	.	.	.	.	.
(16g\LL	.	.	.	.	.	.	.	.	.	<
.	.	(<24ffn/JJ	12fn\ 12ff	.	.	.	.	.	.	.
16G\JJ)	.	24dd/LL	.	.	.	.	.	.	.	.
.	.	24g/)	24ryy	.	.	.	.	.	.	.
(16fn\LL	.	.	.	.	.	16g/	-ren	-ne	.	.
!	!	!	!LO:N:vis=8	!	!	!	!	!	!	!
.	.	(<24ff#X/JJ	12f#X\ 12ff#	.	.	.	.	.	.	.
16Fn\JJ)	.	24dd/LL	.	.	.	(16dd\LL	sie	ży-	[	.
.	.	24g/)	24ryy	.	.	.	.	.	.	.
32r	.	.	.	.	.	16dd#X\JJ)	.	.	.	.
.	.	24gg/JJ)	24g\ 24gg	[	.	.	.	.	.	.
(32BBB#X/ 32BB#X	.	.	.	.	.	.	.	.	.	.
*	*	*	*	*v	*v	*	*	*	*	*
*	*	*	*	*	*	*	*	*v	*v
=15	=15	=15	=15	=15	=15	=15	=15	=15
*^	*	*	*	*	*	*	*	*
8F#X\) 8G#X 8d#X	8ryy	.	(8gg#X/L	24dd#X\LL	fff	(8gg#X\	wil-	-wio-	ff
.	.	.	.	24g#X\	.	.	.	.	.
.	.	.	.	24dd#\JJ	.	.	.	.	.
!	!LO:SIC:s=16An\LL:t=# w nawiasie	!	!	!	!	!LO:SIC:s=8.ff#X\):t=# w nawiasie	!	!	!
[8d#/	16An\LL	.	[8ff#^^/	24b#X\LL	>	8.ff#X\)	-de	.	>
.	.	.	.	24f#\	.	.	.	.	.
!	!LO:SIC:s=16CC#X\JJ 16C#X:t=# w nawiasie	!	!	!	!	!	!	!	!
.	16CC#X\JJ 16C#X	.	.	.	.	.	.	.	.
.	.	.	.	24bn\JJ	.	.	.	.	.
*	*	*	*	*tuplet	*	*	*	*	*
!	!	!	!	!LO:TUP:a	!	!	!	!	!
16d#/LL]	16A\LL	.	12ff#/]	24b#X\LL	.	.	.	.	.
.	.	.	.	24f#\	.	.	.	.	.
16c#/JJ	16A#X\JJ	.	.	.	.	16ee#X\	Ge-	-łów	.
.	.	.	24ee#X/Jk)	24e#X\JJ	]]	.	.	.	.
*v	*v	*	*	*	*	*	*	*	*
=16	=16	=16	=16	=16	=16	=16	=16	=16
*	*	*	*Xtuplet	*	*	*	*	*
!LO:SIC:s=16f#X:t=# w nawiasie	!	!	!	!	!	!	!	!
*	*	*	*	*	*	*	*	*
16An\LL 16f#X	.	(8een/L	24ccn\LL	.	4een\	-wal-	si-	]]
.	.	.	24en\	f <	.	.	.	.
16cn\JJ	.	.	.	.	.	.	.	.
.	.	.	24an\JJ	.	.	.	.	.
!LO:SIC:s=16Dn/LL:t=# w nawiasie	!	!	!	!	!	!	!	!
16Dn/LL	.	8aa/	24cc\LL	.	.	.	.	.
.	.	.	24a\	.	.	.	.	.
!LO:SIC:s=16DDn/JJ:t=# w nawiasie	!	!	!	!	!	!	!	!
16DDn/JJ	.	.	.	.	.	.	.	.
.	.	.	24cc\JJ	.	.	.	.	.
16DD#X/LL 16D#X	.	12gg#X/	24cc#X\LL	.	8dd#X\	-ten	-le	<
.	.	.	24g#X\	.	.	.	.	.
16A#X/JJ 16c#X	.	.	.	.	.	.	.	.
.	.	24ff##X/Jk)	24f##X\JJ	.	.	.	.	.
!!LO:LB:g=original	!	!	!	!	!	!	!
=17	=17	=17	=17	=17	=17	=17	=17	=17
!	!	!LO:N:n=1:acc=n#	!	!	!	!	!	!
16Bn\LL 16g#X	.	(8ff#X/L	24dd\LL	.	16r	.	.	.
!	!	!	!LO:N:n=1:acc=n#	!	!	!	!	!
.	.	.	24f#X\	.	.	.	.	.
16dn\JJ	.	.	.	.	16ddn\	von	wciąż	.
.	.	.	24bn\JJ	.	.	.	.	.
16En/LL	.	8bb/	24dd\LL	.	8dd\	Ort	mu-	.
.	.	.	24b\	.	.	.	.	.
16EEn/JJ	.	.	.	.	.	.	.	.
.	.	.	24dd\JJ	[[	.	.	.	.
*	*	*	*tuplet	*	*	*	*	*
!	!	!	!LO:TUP:a	!	!	!	!	!
16FFn\LL 16Fn	.	12bb-X/	24ee-X\LL	.	8ee-X\	zu	-szą	[
.	.	.	24b-X\	.	.	.	.	.
[16cn\JJ [16e-X	.	.	.	.	.	.	.	.
.	.	24aan/Jk)	24an\JJ	.	.	.	.	.
*	*	*	*Xtuplet	*	*	*	*	*
=18	=18	=18	=18	=18	=18	=18	=18	=18
!	!	!	!	!	!LO:SIC:s=4ff#X\:t=# w nawiasie	!	!	!
16B#X^^\LL] 16d#X] (16an	.	(8dd#X^^/L 8bb#X	24b#X\LL	ff	4ff#X\	Ort,	gnać	ff
.	.	.	24b#\	.	.	.	.	.
16FF#X\JJ 16F#X	.	.	.	.	.	.	.	.
.	.	.	24dd#\JJ	.	.	.	.	.
8c#X^^\ 8f#X)	.	8cc#X^^/J 8aa#X	24a#X\LL	.	.	.	.	.
.	.	.	24a#\	.	.	.	.	.
.	.	.	24cc#\JJ	.	.	.	.	.
*tuplet	*	*	*	*	*	*	*	*
!	!	!LO:TX:a:i:t=rall.	!	!	!	!	!	!
!LO:TUP:a:problem:klamra łukowa	!	!LO:TUP:a:problem:klamra łukowa	!	!	!	!	!	!
24G#X\LL 24Bn 24e#X	.	(16bn\LL) 16gg#X	8ryy	.	8r	.	.	.
(24DDn\	.	.	.	.	.	.	.	.
!	!	!	!	!LO:HP:t=dim.	!	!	!	!
.	.	16g#X\JJ 16ee#X	.	>	.	.	.	.
24Dn\JJ)	.	.	.	.	.	.	.	.
=19	=19	=19	=19	=19	=19	=19	=19	=19
*^	*	*	*	*	*	*	*	*
!	!	!	!LO:SIC:s=16f#X/LL:t=# w nawiasie	!	!	!	!	!	!
*Xtuplet	*	*	*	*	*	*	*	*	*
24D#X/LL 24F# 24B#X	8ryy	.	16f#X/LL 16dd#X	8ryy	.	16r	.	.	.
(24AAA/	.	.	.	.	.	.	.	.	.
.	.	.	16d#X/JJ) 16b#X	.	.	16b#X\	von,	wciąż	mp <
24AA/JJ)	.	.	.	.	.	.	.	.	.
!	!	!	!	!	!LO:HP:t=rall. e dim.	!LO:SIC:s=8.cc#X\:t=# w nawiasie	!	!	!
24AA#X/LL 24En 24Gn	8ryy	.	(8cc#X/L	24en\LL	>	8.cc#X\	Ort	mu-	[ >
(24AAA#X/	.	.	.	24c#X\	.	.	.	.	.
[24AA#/JJ)	.	.	.	[24e\JJ	.	.	.	.	.
(>24E/LL	8AA#\_	.	[8gn/J	24e\LL]	.	.	.	.	.
24G/	.	.	.	24c#\	.	.	.	.	.
.	.	.	.	.	.	16gn/	zu	-szą	]]
24E/JJ	.	.	.	[24e\JJ	.	.	.	.	.
=20	=20	=20	=20	=20	=20	=20	=20	=20	=20
24G/LL	4AA#\]	.	4g/]	24e\LL]	pp	4g/	Ort."	gnać."	pp
24E/	.	.	.	24c#\	.	.	.	.	.
24G/JJ	.	.	.	24e\JJ	.	.	.	.	.
24E/LL	.	.	.	24c#\LL	.	.	.	.	.
24G/	.	.	.	24e\	.	.	.	.	.
24E/JJ	.	.	.	24c#\JJ	.	.	.	.	.
24G#X/LL)	8ryy	.	8g#X/)	24e\LL	.	8r	.	.	.
24E/	.	.	.	24c#\	.	.	.	.	.
24AAA#X/JJ 24AA#X	.	.	.	24e\JJ	.	.	.	.	.
*v	*v	*	*	*	*	*	*	*	*
*	*	*v	*v	*	*	*	*	*
!!LO:PB:g=original	!	!	!	!	!	!
=21||	=21||	=21||	=21||	=21||	=21||	=21||	=21||
*M6/8	*	*M6/8	*	*M6/8	*	*	*
*	*	*^	*	*	*	*	*
*	*	*	*^	*	*	*	*	*
*	*	*	*	*^	*	*	*	*	*
*	*	*tuplet	*tuplet	*	*	*	*	*	*	*
!	!	!LO:TUP:a:problem:klamra łukowa	!LO:TUP:b:problem:klamra łukowa	!	!	!	!LO:TX:i:a:t=(Erstes Zeitmaß, doch etwas unruhiger.)	!	!	!
!	!	!	!	!	!	!	!LO:TX:a:B:t=Tempo I.	!	!	!
8AAAn/ 8AAn	.	(12g/L	24G#X\KL	4d\ 4f#X	8ryy	pp <	4r	.	.	.
.	.	.	N(12A\J	.	.	.	.	.	.	.
.	.	24a/Jk	.	.	.	.	.	.	.	.
*	*	*Xtuplet	*Xtuplet	*	*	*	*	*	*	*
8D\L) [<8F# 8A)	.	24d/LL	[8d\	.	24ryy	.	.	.	.	.
.	.	24dd/	.	.	N[>12dd\	.	.	.	.	.
.	.	24f#X/JJ	.	.	.	.	.	.	.	.
8C#\J 8F#_< [8A#X	.	24a#X/LL 24ddN]	24d\L]	8ryy	2ryy	.	8r	.	.	.
.	.	24d#X/	12d#\J	.	.	.	.	.	.	.
.	.	24dd#X/JJ	.	.	.	.	.	.	.	.
8Cn\ 8F#] 8A#]	.	24e\LL	[8e/	24ryy	.	.	8r	.	.	.
.	.	24ee\	.	[12ee/	.	.	.	.	.	.
.	.	24f#\JJ	.	.	.	.	.	.	.	.
!	!	!	!	!	!	!	!LO:TUP:a:problem:klamra łukowa	!	!	!
*	*	*	*	*	*	*	*	*	*	*
(8DD/L	.	12ee/L]	24e\LL]	[<8a#X/	.	.	12r	.	.	.
.	.	.	24d#\	.	.	.	.	.	.	.
.	.	24dd#/Jk	24dd#\JJ	.	.	.	12a#X/	(Sie:) Ein	(Ona:) Snem	.
8DDD/J)	.	24e\LL	12a#/L]	24ryy	.	.	.	.	.	.
.	.	24ee\	.	[12ee/	.	.	[12a#/	Traum	są	.
.	.	24an\JJ)	24a/Jk	.	.	[[	.	.	.	.
=22	=22	=22	=22	=22	=22	=22	=22	=22	=22	=22
16Cn\LL 16F# [>16A#X	.	(16b-X\LL 16eeN]	4ryy	4ryy	4ryy	<	16a#/]	.	.	<
16Fn\ 16A#_< [16c#	.	16a\ [16cc# 16aa	.	.	.	.	16an/	ist	mi	.
16E\ 16A#] 16c#]	.	16g\ 16cc#] 16gg	.	.	.	.	(16g/LL	al-	tych	.
16D\ 16G#X 16B	.	16fn\ [16dd 16ffn	.	.	.	.	16fn/JJ)	.	.	.
16BB\ 16F 16G#	.	16.g#X\ 16.dd] 16.gg#X	4ryy	4ryy	4ryy	.	16.g#X/	-le	chmur	.
[16DD\JJ	.	.	.	.	.	[[	.	.	.	.
.	.	32ee\JJk 32eee	.	.	.	.	32ee\	das	po-	[
8DDD/ 8DD]	.	24ee\LL 24eee	.	.	.	>	4ee\	Trei-	-go-	mf >
.	.	24ffnX\	.	.	.	.	.	.	.	.
!	!	!LO:TX:b:i:t=rit.	!	!	!	!	!LO:TX:a:i:t=rit.	!	!	!
.	.	24g#X\J 24gg#X	.	.	.	.	.	.	.	.
(8BB\L 8FnX 8G#X	.	24f\L	24ryy	8ryy	8ryy	.	.	.	.	.
.	.	24g#\	24ryy	.	.	.	.	.	.	.
!	!	!	!LO:N:vis=8	!	!	!	!	!	!	!
.	.	24e\J	24e/ 24ee	.	.	.	.	.	.	.
8CnX\J) 8F#X 8An	.	24f#X\L	16eyy/ 16eeyy	24ryy	24ryy	.	8ee-X\	-ben	-nie	]]
.	.	24a\	.	[12a/	24ryy	.	.	.	.	.
.	.	.	16ryy	.	.	.	.	.	.	.
.	.	[<24e-X\JJ	.	.	24e-/) [>24ee-X	]]	.	.	.	.
*	*	*v	*v	*v	*v	*	*	*	*	*
!!LO:LB:g=original	!	!	!	!	!	!
=23	=23	=23	=23	=23	=23	=23	=23
*M9/8	*	*M9/8	*	*M9/8	*	*	*
*^	*	*^	*	*	*	*	*
*	*	*	*	*^	*	*	*	*	*
*	*	*	*	*	*	*	*	*	*	*^
16CCC#\LL 16CC#	16ryy	.	8d#X/L] (8dd#X]	16a\LL]	2ryy	p <	16r	.	.	.	.
!	!	!	!	!	!	!	!	!	!	!LO:HP:t=cresc. molto	!
16A#X\	16ryy	.	.	(<16a#X\	.	.	16a#X/	in	w po-	p <	<
16G#X\	8C#/	.	8c#X/ 8cc#X	16g#X\	.	[	8.cc#\	dunk-	-sęp-	.	.
[16F#\	.	.	.	[16f#\	.	.	.	.	.	.	.
16F#\]	8ryy	.	16.A#X/L 16.a#	16f#</]	.	.	.	.	.	.	.
16E#X\JJ	.	.	.	16e#X</JJ)	.	.	16cc#\	-ler	-ną	.	.
.	.	.	32a#/JJk 32aa#X	.	.	.	.	.	.	.	[[
8En/L 8A#X 8c# 8en	4ryy	.	4a#\ 4ff# 4aa#	8ryy	.	.	[4.ff#\	Höh,	dal,	f >	.
(8EEE/ 8EE	.	.	.	8ryy	4ryy	.	.	.	.	.	.
8DDD#X/J) 8DD#X	8ryy	.	[<8cc#\ [>8ff# [>8ccc#	8ryy	.	f >	.	.	.	.	.
4.D#X\ 4.A#X 4.c#	8f#/	.	[<8cc#/] [8ccc#]	24ff#\LL]	8ryy	.	16ff#\]	.	.	]	.
.	.	.	.	24dd#X\	.	.	.	.	.	.	.
.	.	.	.	.	.	.	16r	.	.	.	.
.	.	.	.	24ff#\JJ	.	.	.	.	.	.	.
.	[>4f##X/	.	12cc#/L] 12ccc#]	N[24ff##X\LL	24ryy	.	4r	.	.	.	.
.	.	.	.	N[24b#X\	12b#/	.	.	.	.	.	.
.	.	.	24bb#X/Jk	[>24bb#\JJ	.	.	.	.	.	.	.
!	!	!	!LO:TX:b:i:t=rall.	!	!	!	!	!	!	!	!
.	.	.	24bb#/KL]	24b#\LLN] 24dd# 24ff##N]	8ryy	]	.	.	.	.	.
.	.	.	12bbnX/J	24bbnX\	.	.	.	.	.	.	.
.	.	.	.	[<24bn\JJ	.	.	.	.	.	.	.
*	*	*	*	*	*	*	*	*	*	*v	*v
*v	*v	*	*	*	*	*	*	*	*	*
*	*	*v	*v	*v	*	*	*	*	*
=24	=24	=24	=24	=24	=24	=24	=24
*M6/8	*	*M6/8	*	*M6/8	*	*	*
*	*	*	*	*	*	*	*^
*	*	*tuplet	*	*	*	*	*	*
!	!	!LO:N:vis=8	!	!	!	!	!	!
16GnX\ 16BnX 16dnX 16gnX]	.	24bnX\)] 24ddnX 24ggnX 24bbnX	.	16r	.	.	.	.
.	.	((24F#/LL 24A#X	pp <	.	.	.	.	.
!	!	!	!	!LO:TX:a:i:t=a tempo	!	!	!	!
16r	.	.	.	16d/	doch	lecz	pp <	.
.	.	24D/JJ)	.	.	.	.	.	.
*	*	*Xtuplet	*	*	*	*	*	*
(8GGG/L 8GG	.	(24d/LL	.	8d/	uns	bu-	.	.
.	.	24G/ 24B	.	.	.	.	.	.
.	.	24E-X/JJ)	.	.	.	.	.	.
8FFF#/J 8FF#	.	(24d#X/LL	.	8d#X/	muß	-dzą	.	.
.	.	24G#X/ 24B#X	.	.	.	.	.	.
.	.	24F#X/JJ)	.	.	.	.	.	.
!	!	!	!	!	!	!	!	!LO:HP:t=poco cresc.
(24DDD#X/LL) 24DD#X	.	(24f#/LL	.	8.f#/	e-	wciąż	.	<
24AAn/	.	24An/ 24c#	[	.	.	.	.	.
!	!	!	!LO:HP:t=poco cresc.	!	!	!	!	!
24C#/J	.	24F#/JJ)	<	.	.	.	.	.
*clefG2	*	*	*	*	*	*	*	*
24D#X/L	.	(24ff#\LL	.	.	.	.	.	.
24A/	.	24a\ 24cc#	.	.	.	.	.	.
.	.	.	.	8f#/	-wig	w na-	.	.
24c#/J	.	24f#\JJ)	.	.	.	.	.	.
24d#X/L	.	(24fff#\LL	.	.	.	.	.	.
24a/	.	24aa\ 24ccc#	.	.	.	.	.	.
.	.	.	.	16f#/	ver-	-szem	[	.
[>24cc#/JJ	.	24ff#\JJ)	.	.	.	.	.	.
*	*	*	*	*	*	*	*v	*v
!!LO:LB:g=original	!	!	!	!	!	!
=25	=25	=25	=25	=25	=25	=25	=25
16e/) 16a 16cc#]	.	24ee\) 24aa 24ccc# 24eee	.	8a/	-blei-	ło-	>
.	.	((24G#X/LL 24B#X	pp	.	.	.	.
16r	.	.	.	.	.	.	.
.	.	24E/JJ)	.	.	.	.	.
*clefF4	*	*	*	*	*	*	*
(8AAA/L 8AA	.	(24e/LL	.	8e/	-ben	-nie	]
.	.	24A/ 24c#	.	.	.	.	.
.	.	24F#X/JJ)	.	.	.	.	.
8GGG#X/J 8GG#X	.	(24fn/LL	.	16r	.	.	.
.	.	24B-X/ 24dn	.	.	.	.	.
.	.	.	.	16fn/	der	tęs-	<
.	.	24A-X/JJ)	.	.	.	.	.
(<24FFFn/LL) 24FFn	.	(24a-X/LL	.	4a-X/	Sehn-	-kno-	.
24C-X/	.	24c-X/ 24e-X	.	.	.	.	.
24E-X/J	.	24A-/JJ)	.	.	.	.	.
*clefG2	*	*	*	*	*	*	*
24Fn/L	.	(24aa-X\LL	.	.	.	.	.
24c-X/	.	24cc-X\ 24ee-X	.	.	.	.	.
24e-X/J	.	24a-\JJ)	.	.	.	.	.
24fn/L	.	(24aaa-X\LL	.	8a-/	-sucht	-ty	[
24cc-X/	.	24ccc-X\ 24eee-X	.	.	.	.	.
[>24ee-X/JJ	.	24aa-\JJ)	.	.	.	.	.
=26	=26	=26	=26	=26	=26	=26	=26
*^	*	*	*	*	*	*	*
*	*	*	*tuplet	*	*	*	*	*
!	!	!	!LO:TUP:a:problem:klamra łukowa	!	!	!	!	!
16g-X\) 16cc-X 16ee-]	2ryy	.	24gg-X\) 24ccc-X 24eee-X 24ggg-X	.	4cc-X\	Weh.	żal.	.
!	!	!	!	!LO:HP:t=cresc. molto e acceler.	!	!	!	!
.	.	.	((24B-X/LL 24d	<	.	.	.	.
16r	.	.	.	.	.	.	.	.
.	.	.	24F#X/JJ)	.	.	.	.	.
*clefF4	*	*	*Xtuplet	*	*	*	*	*
(8BBBn/L 8BBn	.	.	(24f#X/LL	.	.	.	.	.
.	.	.	24Bn/ 24d#X	.	.	.	.	.
.	.	.	24Gn/JJ)	.	.	.	.	.
8BBB-X/J 8BB-X	.	.	(24gn/LL	.	8r	.	.	.
.	.	.	24cn/ 24en	.	.	.	.	.
.	.	.	24G#X/JJ)	.	.	.	.	.
8AAA/L 8AA	.	.	(24g#X/LL	.	4r	.	.	.
.	.	.	24c#X/ 24e#X	.	.	.	.	.
.	.	.	24An/JJ)	.	.	.	.	.
8DDD/J) 8DD	8ryy	.	(24an/LL	.	.	.	.	.
.	.	.	24dn/ 24f#	.	.	.	.	.
.	.	.	24A#X/JJ)	.	.	.	.	.
!	!LO:SIC:s=8F#X:t=# w nawiasie	!	!	!	!	!	!	!
(<16AA#X\LL	8D/ 8F#X	.	(24a#X/LL	.	8r	.	.	.
.	.	.	24d/ 24g#X	.	.	.	.	.
16BBn\JJ	.	.	.	.	.	.	.	.
!	!	!	!LO:SIC:s=24Bn/JJ) 24bn:t=n w nawiasie	!	!	!	!	!
.	.	.	24Bn/JJ) 24bn	.	.	.	.	.
*v	*v	*	*	*	*	*	*	*
!!LO:LB:g=original	!	!	!	!	!	!
=27||	=27||	=27||	=27||	=27||	=27||	=27||	=27||
*M3/8	*	*M3/8	*	*M3/8	*	*	*
*	*	*	*	*^	*	*	*
!	!	!	!	!LO:TX:a:B:t=Piu mosso.	!	!	!	!
8CC#/) 8C#	.	24d\LL) 24dd	<	16r	16ryy	.	.	.
.	.	((24b\ 24gg#X 24bb	.	.	.	.	.	.
!	!	!	!	!	!	!	!	!LO:HP:a
.	.	.	.	16b\	16ryy	(Er:) "Ich	(On:) "Co	f <
.	.	24ggn\JJ)	.	.	.	.	.	.
!	!	!	!	!LO:TX:a:i:t=Con passione.	!	!	!	!
!	!	!	!	!	!LO:N:vis=8.	!	!	!
(24DD\LL 24D	.	(24a\LL 24ffn 24aa	.	8.ffnX/	8ffnX\	seh	tyl	.
24G#X\	.	24ee\)	.	.	.	.	.	.
24A\JJ	.	(24dd\JJ 24ff	.	.	.	.	.	.
16B-X\) 16g	.	24cc#\LL)	.	.	16ff\	ko	.	.
.	.	(24ccn\ 24ee	.	.	.	.	.	.
16r	.	.	.	16ff#y/	16ff#y\	nur	się	[
.	.	24b\JJ)	[[	.	.	.	.	.
*	*	*	*	*v	*v	*	*	*
=28	=28	=28	=28	=28	=28	=28	=28
!	!	!	!	!	!	!	!LO:DY:a
8Cn^^\L 8GnX 8cn	.	(24b-X\LL	>	(8ee\	Kom-	zja-	>
.	.	24en\)	.	.	.	.	.
.	.	(24ffn\JJ	.	.	.	.	.
8AA-X^^\ 8D 8A-X	.	24bn\LL	.	8.bn\)	-men	.	]
.	.	24fn\)	.	.	.	.	.
.	.	(24ff#X\JJ	.	.	.	.	.
8EE-X^^\J 8AAn 8E-X	.	24ccn\LL	.	.	.	.	.
.	.	24f#X\)	.	.	.	.	.
.	.	.	.	16ee-X\	und	-wi	.
.	.	24cc#X\JJ [24gg	]]	.	.	.	.
=29	=29	=29	=29	=29	=29	=29	=29
*	*	*^	*	*	*	*	*
(<32EEEnX/LLL 32EEnX	.	8ryy	24dd\LL 24gg]	.	8ddn\	Schei-	mi-	.
32BB-X/	.	.	.	.	.	.	.	.
.	.	.	24g\	.	.	.	.	.
32D/	.	.	.	.	.	.	.	.
.	.	.	24gg\JJ	.	.	.	.	.
32G/JJJ	.	.	.	.	.	.	.	.
16B-X\)	.	24ryy	24b-X\LL	.	8gn/	-den	-ja	.
.	.	[12dd/	24dd\	.	.	.	.	.
16r	.	.	.	.	.	.	.	.
.	.	.	[>24d\JJ	.	.	.	.	.
(8AAA/L 8AA	.	12d/L]) 12ddnX]	24cc#\LL	.	16r	.	.	.
.	.	.	24f#X\	.	.	.	.	.
.	.	.	.	.	16dd#X\	am	wśród	<
.	.	[<24d#X/Jk [24dd#X	24d#\JJ	.	.	.	.	.
*	*	*v	*v	*	*	*	*	*
!!LO:PB:g=original	!	!	!	!	!	!
=30	=30	=30	=30	=30	=30	=30	=30
8GGG#X/J) 8GG#X	.	24d#\LL] 24dd#]	.	4ff#X\	Hm-	nie-	ff
.	.	((24f#\ 24dd#X 24ff#	ff	.	.	.	.
.	.	24ddn\JJ)	.	.	.	.	.
(<24AAA/LL 24AA	.	(24e/LL 24ccn 24ee	>	.	.	.	.
24D#X/	.	24b/)	.	.	.	.	.
24E/JJ	.	(24a/JJ 24cc	.	.	.	.	.
16Fn\) 16d	.	24g#X/LL)	.	8ffn\	-mels-	-bios	>
.	.	(24gn/ 24b	.	.	.	.	.
16r	.	.	.	.	.	.	.
.	.	24f#/JJ)	.	.	.	.	.
=31	=31	=31	=31	=31	=31	=31	=31
8GG^^</L 8Dn 8G	.	(24fn/LL	.	[4bn\	-zelt,	pól,	.
.	.	24B/)	.	.	.	.	.
.	.	(24ccn/JJ	.	.	.	.	.
8EE-X^^</ 8AA 8E-X	.	24f#X/LL	.	.	.	.	.
.	.	24cn/)	.	.	.	.	.
.	.	(24cc#X/JJ	]	.	.	.	.
8BBB-X^^</J 8EEn 8BB-X	.	24g/LL	.	16b\]	.	.	]
.	.	24c#X/)	.	.	.	.	.
.	.	.	.	16r	.	.	.
.	.	(>24dd/JJ	.	.	.	.	.
=32	=32	=32	=32	=32	=32	=32	=32
*	*	*^	*	*	*	*	*
(32BBBnX\LLL 32BBnX	.	24ryy	24a-X\LL	.	16r	.	.	.
32Fn\	.	.	.	.	.	.	.	.
!	!	!	!	!LO:HP:t=cresc. molto	!	!	!	!
.	.	24ryy	24d\)	<	.	.	.	.
*	*	*	*	*	*	*	*	*^
32G\	.	.	.	.	16a-X/	es	a	mp <	.
.	.	(12fn/ 12ff#	24f\JJ	.	.	.	.	.	.
32d\JJJ	.	.	.	.	.	.	.	.	.
!	!	!	!	!	!	!	!	!	!LO:HP:t=cresc. molto
32g\LLL	.	.	24dd\LL	.	(8g\L	zieht	zaw-	.	<
32d\	.	.	.	.	.	.	.	.	.
.	.	24ryy	24g\)	.	.	.	.	.	.
32G\	.	.	.	.	.	.	.	.	.
.	.	(12f#X/ 12ff#X	24f#\JJ	.	.	.	.	.	.
32F\JJJ	.	.	.	.	.	.	.	.	.
32BB/LLL	.	.	24dd\LL	.	16dd\J)	.	.	.	.
32BBB/JJJ)	.	.	.	.	.	.	.	.	.
.	.	24ryy	[24g\)	.	.	.	.	.	.
32r	.	.	.	.	16dd#X\	die	-sze	[	.
!	!	!LO:N:vis=8	!	!	!	!	!	!	!
.	.	24g/) 24gg	24g\JJ]	.	.	.	.	.	.
!LO:TX:t=P:problem: wydrapana główka nuty	!	!	!	!	!	!	!	!	!
(<32BBB#X/ 32BB#X	.	.	.	.	.	.	.	.	.
*	*	*	*	*	*	*	*	*v	*v
!!LO:LB:g=original	!	!	!	!	!	!	!
=33	=33	=33	=33	=33	=33	=33	=33	=33
(8F#X\) 8G#X 8d#X	.	(8gg#X/L	32dd#X\LLL	ff >	8gg#X^^\	See-	swiat	ff
.	.	.	32g#X\	.	.	.	.	.
.	.	.	32cc##X\	.	.	.	.	.
.	.	.	32dd#\JJJ	.	.	.	.	.
32A/LLL 32d#	.	[8ff#^^/	24b#X\LL	.	8ff#\	-le	ten	>
(<32CC#X/	.	.	.	.	.	.	.	.
.	.	.	24f#\	.	.	.	.	.
32C#X/	.	.	.	.	.	.	.	.
.	.	.	24bn\JJ	]]	.	.	.	.
32F#/JJJ)	.	.	.	.	.	.	.	.
*	*	*	*tuplet	*	*	*	*	*
!	!	!	!LO:TUP:a	!	!	!	!	!
16A\LL 16d#	.	12ff#/]	24b#X\LL	.	16r	.	.	.
.	.	.	24f#\	.	.	.	.	.
16A#X\JJ) 16c#X	.	.	.	.	16ee#X\	der	spo-	]
!	!	!	!LO:N:n=2:acc=n#	!	!	!	!	!
.	.	24ee#X/Jk)	24e#X\JJ 24cc#X	.	.	.	.	.
=34	=34	=34	=34	=34	=34	=34	=34	=34
!LO:SIC:s=24f#X:t=# w nawiasie	!	!	!	!	!	!	!	!
(24An\LL 24f#X	4 1	(8een/L	32ccn\LLL	.	4een\	Lei-	-wi-	<
.	.	.	32en\	.	.	.	.	.
24cn\	2	.	.	.	.	.	.	.
.	.	.	32g#X\	.	.	.	.	.
[24Dn\JJ	1	.	.	.	.	.	.	.
.	.	.	32a\JJJ	.	.	.	.	.
*	*	*	*Xtuplet	*	*	*	*	*
8DD/) 8D]	.	8aa^^/	24cc\LL	.	.	.	.	.
.	.	.	24a\	.	.	.	.	.
.	.	.	24cc\JJ	.	.	.	.	.
(32BBB#X/LLL	.	12gg#X/	24cc#X\LL	.	8dd#X\	-den	-ja	.
32D#X/	.	.	.	.	.	.	.	.
.	.	.	24g#X\	.	.	.	.	.
32A#X/	.	.	.	.	.	.	.	.
.	.	24ff##X/Jk)	24f##X\JJ	.	.	.	.	.
32c#X/JJJ)	.	.	.	.	.	.	.	.
=35	=35	=35	=35	=35	=35	=35	=35	=35
*^	*	*	*	*	*	*	*	*
(24Bn\LL 24g#X	4ryy	.	(8ff#X/L	32dd\LLL	.	16r	.	.	.
!	!	!	!	!LO:N:n=1:acc=n#	!	!	!	!	!
.	.	.	.	32f#X\	.	.	.	.	.
24dnX\	.	.	.	.	.	.	.	.	.
.	.	.	.	32a#X\	.	16ddn\	durch	od-	.
[24En\JJ)	.	.	.	.	.	.	.	.	.
.	.	.	.	32b\JJJ	.	.	.	.	.
!	!	!	!	!LO:TX:b:Bi:t=cresc._ :problem:dynamics with line extensions	!LO:HP:t=cresc._	!	!	!	!
8EE/ 8E]	.	.	8bb^^/	24dd\LL	<	8dd\	al-	-wiecz-	.
.	.	.	.	24b\	.	.	.	.	.
.	.	.	.	24dd\JJ	.	.	.	.	.
*	*	*	*	*tuplet	*	*	*	*	*
!	!	!	!	!LO:TUP:a	!	!	!	!	!
(32FFn\LLL	32ryy	.	12bb-X/	24ee-X\LL	.	8ee-X\	-le	-ny	[
32Fn\	32ryy	.	.	.	.	.	.	.	.
.	.	.	.	24b-X\	.	.	.	.	.
!LO:N:vis=16	!	!	!	!	!	!	!	!	!
32cn\	(<32c/	.	.	.	.	.	.	.	.
.	.	.	24aan/Jk)	24an\JJ	.	.	.	.	.
!LO:N:vis=16	!	!	!	!	!	!	!	!	!
32e-X\JJJ)	(>32e-/	.	.	.	.	.	.	.	.
*v	*v	*	*	*	*	*	*	*	*
!!LO:LB:g=original	!	!	!	!	!	!	!	!
=36	=36	=36	=36	=36	=36	=36	=36	=36
*	*	*	*Xtuplet	*	*	*	*	*
!	!	!	!	!	!LO:SIC:s=4ff#X\:t=# w nawiasie	!	!	!
*	*	*	*	*	*	*	*	*
(16B#X^^\LL) 16d#X) 16a	.	(8dd#X^^/L 8bb#X	24b#X\LL	ff	4ff#X\	Welt,	ból,	ff
!	!	!LO:TX:b:i:t=rall.	!	!	!	!	!	!
.	.	.	24b#\	.	.	.	.	.
!LO:SIC:s=16FF#X\J 16F#X:t=# w nawiasie	!	!	!	!	!	!	!	!
16FF#X\JJ 16F#X	.	.	.	.	.	.	.	.
.	.	.	24dd#\JJ	.	.	.	.	.
8c#X^^\) 8f#	.	8cc#X^^/J 8ccc#	24a#X\LL	.	.	.	.	.
.	.	.	24a#\	.	.	.	.	.
.	.	.	24cc#\JJ)	.	.	.	.	.
!	!	!LO:TX:b:Bi:t=dimin. e rallent._:problem:dynamics with line extensions	!	!	!	!	!	!
!	!	!LO:TX:t=P:problem:klamra łukowa i 2	!	!LO:HP:t=dimin. e rallent._	!	!	!	!
(24G#X\LL 24Bn 24e#X	.	(16bn\LL 16gg#X	8ryy	<	8r	.	.	.
24DDn\	.	.	.	.	.	.	.	.
.	.	16g#X\JJ 16ee#X	.	.	.	.	.	.
24Dn\JJ	.	.	.	.	.	.	.	.
=37	=37	=37	=37	=37	=37	=37	=37	=37
*^	*	*	*	*	*	*	*	*
24D#X/LL 24F#X 24B#X	4ryy	.	16f#X/LL 16dd#X	8ryy	.	16r	.	.	.
24AAAn/	.	.	.	.	.	.	.	.	.
.	.	.	16d#X/JJ) 16b#X	.	.	16b#X\KL	durch	od-	mp <
24AAn/JJ)	.	.	.	.	.	.	.	.	.
(24AA#X/LL 24En 24Gn	.	.	(8cc#X/L	24en\LL	.	8.cc#\	al-	-wiecz-	.
24AAA#X/	.	.	.	24c#X\	.	.	.	.	.
[24AA#/JJ	.	.	.	[24e\JJ	.	.	.	.	.
24E/LL	8AA#\_	.	[8gn/J	24e\LL]	.	.	.	.	.
24G/	.	.	.	24c#\	.	.	.	.	.
.	.	.	.	.	.	16gn\Jk	-le	-ny	[ > ]]
24E/JJ	.	.	.	[24e\JJ	.	.	.	.	.
=38	=38	=38	=38	=38	=38	=38	=38	=38	=38
24G/LL	4.AA#\_	.	4g/]	24e\LL]	.	8.g/	Welt."	ból."	pp
24E/	.	.	.	24c#\	.	.	.	.	.
24G/JJ	.	.	.	24e\JJ	.	.	.	.	.
24E/LL	.	.	.	24c#\LL	.	.	.	.	.
24G/	.	.	.	24e\	.	.	.	.	.
.	.	.	.	.	.	8r	.	.	.
24E/JJ	.	.	.	24c#\JJ	.	.	.	.	.
24G#X/LL	.	.	[8g#X/	24e\LL	.	.	.	.	.
24E/	.	.	.	24c#\	.	.	.	.	.
.	.	.	.	.	.	16r	.	.	.
24G#/JJ	.	.	.	24e\JJ	.	.	.	.	.
!!LO:LB:g=original	!	!	!	!	!	!	!	!	!
=39	=39	=39	=39	=39	=39	=39	=39	=39	=39
24E/LL	8AA#\L]	.	4g#/_	24c#\LL	.	4r	.	.	.
24G/	.	.	.	24e\	.	.	.	.	.
24E/JJ	.	.	.	24cn\JJ	.	.	.	.	.
!	!LO:SIC:s=8BBn\:t=n w nawiasie	!	!	!	!	!	!	!	!
24G/LL	8BBn\	.	.	24e\LL	.	.	.	.	.
24E/	.	.	.	24Bn\	.	.	.	.	.
24G/JJ	.	.	.	[24e\JJ	.	.	.	.	.
24E/LL	8Cn\J	.	8e/]) 8g#]	24B-X\LL	.	8r	.	.	.
24G/	.	.	.	24d-X\	.	.	.	.	.
24E/JJ)	.	.	.	24B-\JJ	.	.	.	.	.
*v	*v	*	*	*	*	*	*	*	*
*	*	*v	*v	*	*	*	*	*
=40||	=40||	=40||	=40||	=40||	=40||	=40||	=40||
*M6/8	*	*M6/8	*	*M6/8	*	*	*
*^	*	*^	*	*	*	*	*
*	*^	*	*	*^	*	*	*	*	*
!	!	!	!	!	!	!	!	!LO:TX:a:i:t=(dolcissimo)	!	!	!
!	!	!	!	!LO:TX:b:i:t=legatissimo	!	!	!	!LO:TX:a:B:t=Tempo I.	!	!	!
24D-X/LL 24E-X 24B-X	8ryy	4ryy	.	(8e-X/L 8gn	24d-X\LL	4ryy	pp	8g/	(Sie:) Die	(Ona:) Bez-	ppp <
(24EEE-X/	.	.	.	.	24G\	.	.	.	.	.	.
24EE-X/JJ)	.	.	.	.	[24d-\J	.	.	.	.	.	.
24B-/LL	12E-\L	.	.	8d-/ 8dd-X	24d-\L]	.	.	8dd-X\	Wol-	-ład-	.
24G/	.	.	.	.	24eny\ 24g	.	.	.	.	.	.
24B-/J	[24Dn\Jk	.	.	.	24d-\J	.	.	.	.	.	.
24G/L	24D\KL]	4ryy	.	8dn/J 8ddn	24d\L	4ryy	.	8ddn\	-ken	-nie	.
24B-/	12D-X\J	.	.	.	24g\ 24b-X	.	.	.	.	.	.
24G/JJ	.	.	.	.	24d\JJ	.	.	.	.	.	.
*	*	*	*	*	*	*	*	*	*	*	*
!	!	!	!	!	!LO:TUP:r=8	!	!	!	!	!	!
24Cn/LL 24G-X 24An	8ryy	.	.	[8ee-X/L	24g-X\LL 24anX	.	.	8.ee-X\	wan-	mkną	[ >
(24EEE-/	.	.	.	.	24e-X\	.	.	.	.	.	.
24EE-/JJ)	.	.	.	.	24g-\J 24a	.	.	.	.	.	.
*	*	*	*	*	*tuplet	*	*	*	*	*	*
!LO:TX:a:i:t=(rall.)	!	!	!	!	!LO:TUP:a:r=8	!	!	!	!	!	!
24A/LL	4C\	8ryy	.	12ee-/]	24e-\L	8ryy	.	.	.	.	.
24G-/	.	.	.	.	24g-\ 24a	.	.	.	.	.	.
.	.	.	.	.	.	.	.	8an/	-dern	chmu-	.
24A/J	.	.	.	24ddnX/K	24dnX\J	.	.	.	.	.	.
*	*	*	*	*	*Xtuplet	*	*	*	*	*	*
!	!	!	!	!	!LO:TUP:r=8	!	!	!	!	!	!
24G-/L	.	24ryy	.	(8ee-/J)	24e-\L	24ryy	.	.	.	.	.
24A/	.	[12A\	.	.	24g-\	[12a/	.	.	.	.	.
.	.	.	.	.	.	.	.	16a/	so	-ry	]
24G-/JJ	.	.	.	.	(24e-\JJ	.	.	.	.	.	.
*v	*v	*v	*	*	*	*	*	*	*	*	*
*	*	*v	*v	*v	*	*	*	*	*
!!LO:PB:g=original	!	!	!	!	!	!	!
=41	=41	=41	=41	=41	=41	=41	=41
*M9/8	*	*M9/8	*	*M9/8	*	*	*
*^	*	*^	*	*	*	*	*
*	*^	*	*	*	*	*	*	*	*
*	*	*	*	*	*	*	*	*	*	*^
!LO:TX:b:t=col 8	!	!	!	!	!	!	!	!	!	!LO:HP:t=dim.	!
16A\LL]	8CC#X\	2ryy	.	(8d#X/L) 8dd#X)	16a\LL]	<	8a#X/	näch-	czar-	>	.
(<16A#X\	.	.	.	.	(<16a#X\	.	.	.	.	.	.
!	!	!	!	!	!	!	!LO:SIC:s=8c#X/:t=# w nawiasie	!	!	!	!
16G#X\	8C#X/	.	.	8c#X/ 8cc#X	16g#X\	.	8c#X/	-tig	-ne	<	.
[<16F#X\	.	.	.	.	[16f#X\	.	.	.	.	.	.
16F#\]	8ryy	.	.	16.A#X/L 16.a#X	16f#X</]	.	16r	.	.	.	.
16E#X\JJ)	.	.	.	.	16e#X</JJ)	[	16a#/	ohn	z wi-	.	<
.	.	.	.	32a#/JJk 32aa#X	.	.	.	.	.	.	.
8En/L 8F# 8A# 8c# 8en	4ryy	.	.	4a#/ 4ff#X 4aa#	24a#\LL	.	[4.ff#\	Schmerz	-chu-	[ f >	.
.	.	.	.	.	24cc#\	.	.	.	.	.	.
.	.	.	.	.	24a#\J	<	.	.	.	.	.
8EEE/J 8EE	.	8ryy	.	.	24cc#\L	.	.	.	.	.	.
.	.	.	.	.	24a#\	.	.	.	.	.	.
!	!	!	!	!	!	!	!	!	!	!	!LO:HP:t=dim.
.	.	.	.	.	24cc#\J	.	.	.	.	.	>
24DDD#X/LL 24DD#X	8ryy	8ryy	.	[<8cc#/ [8ccc#	24ff#\L	f	.	.	.	.	.
24AA#X/	.	.	.	.	24dd#X\	.	.	.	.	.	.
[24D#X/JJ	.	.	.	.	24ff#\JJ	.	.	.	.	.	.
24A#/LL	8D#\_ [8A#	24ryy	.	8cc#/_< 8ccc#_	24dd#\LL	.	4ff#\]	.	.	.	.
24c#/	.	[<12c#\	.	.	24ff#\	.	.	.	.	.	.
24f#/JJ	.	.	.	.	24dd#\J	.	.	.	.	.	.
8..f##X/	8..D#\] 8..A#] 8..c#]	8ryy	.	12cc#/L] 12ccc#]	24ff##X\L	.	.	.	.	.	.
.	.	.	.	.	[24b#X\	>	.	.	.	.	.
.	.	.	.	24b#/Jk 24bb#X	24b#\J]	.	.	.	.	.	.
.	.	8ryy	.	24ryy	24een\L	.	8een\	und	-ry	]	.
.	.	.	.	[24bbn/LL	24bb\	.	.	.	.	.	.
.	.	.	.	24bb/JJ_) 24bn\	24bn\JJ	.	.	.	.	.	.
[32GGGn/ [<32GGn	32ryy	.	.	.	.	]]	.	.	.	.	.
*	*	*	*	*	*	*	*	*	*	*v	*v
*v	*v	*v	*	*	*	*	*	*	*	*
*	*	*v	*v	*	*	*	*	*
=42	=42	=42	=42	=42	=42	=42	=42
*M6/8	*	*M6/8	*	*M6/8	*	*	*
*^	*	*^	*	*	*	*	*
*	*^	*	*	*	*	*	*	*	*
*	*	*	*	*	*tuplet	*	*	*	*	*
!	!	!	!	!	!LO:TUP:a:r=8	!	!	!	!	!
4.GGG\] 4.GG]	24Gn/LL 24Bn	4DnX\	.	(12bbnX/L]	24ddn\LL 24ggn	p <	4ddn\	Lust,	tchem,	p >
.	24dn/	.	.	.	24bn\	.	.	.	.	.
.	24G/J 24B	.	.	[24bb/Jk	24dd\J 24gg	.	.	.	.	.
*	*	*	*	*	*Xtuplet	*	*	*	*	*
.	24d/L	.	.	8bb/L]	24b\L	.	.	.	.	.
.	24G/ 24B	.	.	.	24dd\ 24gg	.	.	.	.	.
.	24d/J	.	.	.	24b\J	.	.	.	.	.
.	24B-X/L 24d-X	8E-\	.	8bb-X/J	24dd-X\L 24ee-X	[	8r	.	.	]
.	24e-X/	.	.	.	24b-X\	.	.	.	.	.
.	24B-/JJ 24d-	.	.	.	24dd-\JJ 24ee-	.	.	.	.	.
!!LO:LB:g=original	!	!	!	!	!	!	!	!	!	!
*	*	*	*	*	*	*	*	*	*	*^
24E\LL 24A-X 24d-X 24en	8ryy	8ryy	.	4een/	24dd-\LL	.	8.b-X\	ich	O!	pp <	.
(24AAA-X\	.	.	.	.	24en\	.	.	.	.	.	.
!	!	!	!	!	!	!LO:HP:a	!	!	!	!	!
24AA-X\J	.	.	.	.	24dd-\J	<	.	.	.	.	.
24C#\L	4ryy	4ryy	.	.	24e\L	.	.	.	.	.	.
24A-X\	.	.	.	.	24dd-\	.	.	.	.	.	.
!	!	!	!	!	!	!	!	!	!	!	!LO:HP:t=cresc. molto
.	.	.	.	.	.	.	8a-X/	a-	Jak-	.	<
[<24d-\JJ)	.	.	.	.	24e/JJ	.	.	.	.	.	.
24d-\LL] 24a-X	.	.	.	16.fn\LL 16.dd- 16.ffn	8ryy	.	.	.	.	.	.
(24dd-X\	.	.	.	.	.	.	.	.	.	.	.
.	.	.	.	.	.	.	16dd-X\	-ber	-że	[[	.
24cn\JJ 24ccn	.	.	.	.	.	.	.	.	.	.	.
.	.	.	.	32ff\JJk) 32fffn	.	.	.	.	.	.	.
*	*	*	*	*	*	*	*	*	*	*v	*v
*	*v	*v	*	*	*	*	*	*	*	*
=43	=43	=43	=43	=43	=43	=43	=43	=43	=43
!	!	!	!	!	!	!LO:TX:a:i:t=passionato	!	!	!
8c-X\L) 8d-X 8fn 8cc-X	4ryy	.	4ffn\ 4aa-X 4ddd-X 4fffn	4ryy	<	4ffn\	zie-	cię	f
8CC-X\J 8C-X	.	.	.	.	.	.	.	.	.
*	*	*	*	*8va	*	*	*	*	*
24BBB-X/LL 24BB-X	8ryy	.	8aaa-/	24aa-X\LL N[>24aaa-X	[ ff	4aa-X\	-he	moc-	ff >
24Fn/	.	.	.	24bb-X\ 24ddd-X	.	.	.	.	.
(24B-X/JJ	.	.	.	24aa-\JJ	.	.	.	.	.
*clefG2	*	*	*	*	*	*	*	*	*
*v	*v	*	*	*	*	*	*	*	*
*	*	*v	*v	*	*	*	*	*
*	*	*	*	*	*	*	*
*^	*	*^	*	*	*	*	*
N[<24f#X/LL	[8B-\)	.	[8aaa-/LN]	24bb-\LL 24ddd-	>	.	.	.	.
N[<24a-X/	.	.	.	24aa-\	.	.	.	.	.
24dd-X/JJ	.	.	.	24bb-\J 24ddd-	.	.	.	.	.
8..ddn/	8..B-\] 8..f#N] 8..a-N]	.	12aaa-y/]	24dddn\L	.	4ggn\	dich	-no	]]
.	.	.	.	[>24ggn\	.	.	.	.	.
.	.	.	12gggnX/	24gg\J]	]	.	.	.	.
!	!	!	!LO:TX:b:i:t=rit.	!	!	!	!	!	!
.	.	.	.	24bb-X\L	.	.	.	.	.
.	.	.	12ggg-X/J	24ggg-\	.	.	.	.	.
.	.	.	.	24gg-X\JJ	.	.	.	.	.
*clefF4	*	*	*	*	*	*	*	*	*
32AAAn/ 32AAn	32ryy	.	.	.	.	.	.	.	.
*v	*v	*	*	*	*	*	*	*	*
*	*	*v	*v	*	*	*	*	*
!!LO:LB:g=original	!	!	!	!	!	!	!
=44	=44	=44	=44	=44	=44	=44	=44
*	*	*	*	*	*	*	*
*	*	*^	*	*	*	*	*
*	*	*	*^	*	*	*	*	*
*	*	*	*	*	*^	*	*	*	*
!	!	!	!	!	!	!	!LO:SIC:s=[4.ff#X\:t=# w nawiasie	!	!	!
24G#X\LL 24dn 24f#X 24g#X	.	16ff#X/ 16dddn 16fff#X	16ryy	8ryy	mp	.	[4.ff#X\	mäch-	gar-	mp <
24An\	.	.	.	.	.	.	.	.	.	.
*	*	*X8va	*	*	*	*	*	*	*	*
.	.	16r	16ryy	.	.	.	.	.	.	.
24an\JJ	.	.	.	.	<	.	.	.	.	.
!	!	!	!LO:N:vis=8	!	!	!	!	!	!	!
8AAA/ 8AA	.	24dn/LL	N[24dn\	8ryy	.	.	.	.	.	.
.	.	24ddn/	N[>12ddn\	.	.	.	.	.	.	.
.	.	24f#X/JJ	.	.	[[	.	.	.	.	.
8C#\ [8F# [8A#X	.	24a#X/LL 24ddN]	24dn\LLN]	8ryy	.	<	.	.	.	.
.	.	24d#X/	12d#\JJ	.	.	.	.	.	.	.
.	.	24dd#X/JJ	.	.	.	.	.	.	.	.
!	!	!	!LO:N:vis=8	!	!	!	!	!	!	!
8Cn\ 8F#] 8A#]	.	24e\LL	N[24e/	8ryy	>	.	4ff#\]	.	.	[ f >
.	.	24ee\	[>12ee/	.	.	.	.	.	.	.
.	.	24f#y\JJ	.	.	.	.	.	.	.	.
(<8DD/L	.	24e\LLN]	12ee/L]	[<8a#X/	.	.	.	.	.	.
.	.	24d#y\	.	.	.	.	.	.	.	.
.	.	24dd#y\JJ	24dd#y/J	.	.	.	.	.	.	.
8DDD/J)	.	24e\LL	24ryy	12a#/L]	]]	.	8ccn\	-tig	-nę	]
.	.	24ee\	[>12ee/	.	.	.	.	.	.	.
.	.	24anX\JJ	.	24an/J	.	.	.	.	.	.
*	*	*	*	*	*v	*v	*	*	*	*
*	*	*	*v	*v	*	*	*	*	*
*	*	*v	*v	*	*	*	*	*
=45	=45	=45	=45	=45	=45	=45	=45
16Cn\LL 16F# 16A#X	.	(16b-X\LL 16ee]	p <	16r	.	.	.
16Fn\ [16A# [16c#	.	16a\ [16cc# 16aa	.	8cc#X\	an	na	p <
16E\ 16A#] 16c#]	.	16g\ 16cc#] 16gg	.	.	.	.	.
16D\ 16G#X 16B	.	16fn\ [<16dd 16ffn	.	[8dd\	mei-	ser-	.
16BB\ 16FnX 16G#	.	16.g#X\ 16.dd] 16.gg#X	.	.	.	.	.
[16DD\JJ	.	.	.	32dd\]	.	.	.
.	.	32ee\JJk 32eee	[	32ee\	-ne	-cu	[
8DDD/ 8DD]	.	24ee\LL 24eee	.	(4ee\	Brust,	mem,	mp >
.	.	24ffnX\	>	.	.	.	.
.	.	24g#X\J 24gg#X	.	.	.	.	.
(8BB\L 8F 8G#	.	24fnX\L	.	.	.	.	.
.	.	24g#\	.	.	.	.	.
.	.	24e\J 24ee	]]	.	.	.	.
!	!	!LO:TX:b:i:t=rit.	!	!	!	!	!
8CnX\J) 8F#X 8A#	.	24f#X\L	.	8ee-X\)	.	.	]
.	.	24a\	.	.	.	.	.
.	.	24e-X\JJ) 24ee-X	.	.	.	.	.
!!LO:LB:g=original	!	!	!	!	!	!	!
=46	=46	=46	=46	=46	=46	=46	=46
*M3/8	*	*M3/8	*	*M3/8	*	*	*
*	*	*^	*	*	*	*	*
*	*	*	*^	*	*	*	*	*
*	*	*	*	*^	*	*	*	*	*
8FFF#/ 8FF#	.	(24eenX\LL 24eeenX	8ryy	8ryy	4ryy	pp	4r	.	.	.
.	.	24ffn\	.	.	.	.	.	.	.	.
.	.	24g#X\J 24gg#X	.	.	.	>	.	.	.	.
(8BB\L 8Fn 8G#X	.	24fn\L	24ryy	8r	.	.	.	.	.	.
!	!	!LO:TX:b:i:t=rit.	!	!	!	!	!	!	!	!
.	.	24g#\	24ryy	.	.	.	.	.	.	.
.	.	24e\J 24ee	12ee/	.	.	.	.	.	.	.
8Cn\J) 8F#X 8A	.	24f#X\L	.	24ryy	24ryy	.	8r	.	.	.
.	.	24a\	24ryy	[12a/	24ryy	.	.	.	.	.
.	.	[<24e-X\JJ) 24ee-X	24ryy	.	[>24ee-/	]]	.	.	.	.
*	*	*v	*v	*v	*v	*	*	*	*	*
=47	=47	=47	=47	=47	=47	=47	=47
*M6/8	*	*M6/8	*	*M6/8	*	*	*
*^	*	*^	*	*	*	*	*
16DDD\LL 16DD	8ryy	.	(8e-X/L] 8ee-X]	16a\LL]	pp <	8r	.	.	.
(<16Bn\	.	.	.	(<16bn\	.	.	.	.	.
!	!	!	!	!	!	!LO:TX:a:i:t=dolcissimo	!	!	!
16A\	8D/	.	8d/ 8dd	16a\	[[	16b\	an	na	pp <
[<16Gn\	.	.	.	[16gn\	.	8b\	mei-	ser-	.
16G\]	8ryy	.	16.B/L 16.b	16g</]	.	.	.	.	.
16F#\JJ)	.	.	.	16f#</JJ)	.	16d/	-ne	-cu	[
.	.	.	32b/JJk 32bb	.	.	.	.	.	.
(4Fn^^/ 4B 4d 4g#X	8ryy	.	(4b^^\ 4dd 4bb	8ryy	.	[4.d/	Brust.	mem.	>]
.	4DDD^^\ 4DD	.	.	4ryy	.	.	.	.	.
8F#X/) 8cn 8d	.	.	8a\)) 8ccn 8dd 8aa	.	.	.	.	.	.
*	*	*	*v	*v	*	*	*	*	*
=48	=48	=48	=48	=48	=48	=48	=48	=48
(4FFn^^/ 4BB 4D 4G#X	8r	.	(>(>4B^^/ 4d 4b	>	8d/]	.	.	.
.	4DDD^^\ 4DD	.	.	.	8r	.	.	.
[<8FF#X/) [<8Cn [8D	.	.	[8A/) [8cn [8d [8a	]	8r	.	.	.
8FF#/L] 8C] 8D]	8ryy	.	8A/L] 8c] 8d] 8a]	<	4r	.	.	.
8BB-X/ 8E-X	4ryy	.	8G/ 8B-X 8e-X 8g	[[	.	.	.	.
[8BBB-X/J [>8EEn [8BB-	.	.	[8En/J [8G [8c	>	8r	.	.	.
=49	=49	=49	=49	=49	=49	=49	=49	=49
8BBB-/L] 8EE] 8BB-]	2.DDD;\	.	8E/L] 8G] 8c]	.	2.r;	.	.	.
[<8AAA/J [8FF# [8AA	.	.	[8D/J [8F# [8A [8d	] pppp	.	.	.	.
2AAA;/] 2FF#] 2AA]	.	.	2D;/]) 2F#] 2A] 2d]	.	.	.	.	.
*v	*v	*	*	*	*	*	*	*
==	==	==	==	==	==	==	==
*-	*-	*-	*-	*-	*-	*-	*-
!!!system-decoration: s1{(s2,s3)}
!!!RDF**kern: > = above
!!!RDF**kern: < = below
!!!RDF**kern: N = linked
!!!ENC: Anastazja Marusiak
!!!END: 2023-10-03
!!!EED: Jan Barakat
!!!EEV: 2023-11-26
